public/logos/B8.svg

<?xml version="1.0" encoding="UTF-8"?>
<svg xmlns="http://www.w3.org/2000/svg" xmlns:xlink="http://www.w3.org/1999/xlink" width="176pt" height="40.19pt" viewBox="0 0 176 40.19" version="1.1">
<defs>
<clipPath id="clip1">
  <path d="M 0 0 L 33 0 L 33 40.191406 L 0 40.191406 Z M 0 0 "/>
</clipPath>
</defs>
<g id="surface1">
<path style=" stroke:none;fill-rule:nonzero;fill:rgb(14.697266%,50.343323%,22.840881%);fill-opacity:1;" d="M 39.234375 14.636719 L 26.886719 14.636719 L 29.414062 9.023438 L 41.765625 9.023438 L 39.234375 14.636719 "/>
<path style=" stroke:none;fill-rule:nonzero;fill:rgb(88.586426%,11.444092%,14.457703%);fill-opacity:1;" d="M 34.839844 24.054688 L 22.492188 24.054688 L 25.019531 18.441406 L 37.367188 18.441406 L 34.839844 24.054688 "/>
<path style=" stroke:none;fill-rule:nonzero;fill:rgb(25.152588%,48.873901%,78.527832%);fill-opacity:1;" d="M 30.445312 33.472656 L 8.886719 33.472656 L 11.414062 27.859375 L 32.972656 27.859375 L 30.445312 33.472656 "/>
<g clip-path="url(#clip1)" clip-rule="nonzero">
<path style=" stroke:none;fill-rule:nonzero;fill:rgb(97.587585%,82.139587%,3.733826%);fill-opacity:1;" d="M 0 39.769531 C 0 39.769531 6.90625 24.28125 12.140625 19.050781 C 17.371094 13.816406 26.582031 8.898438 29.929688 3.25 C 31.742188 0.1875 32.230469 0.00390625 32.230469 0.00390625 C 32.230469 0.00390625 33.90625 12.5625 26.371094 21.769531 C 18.835938 30.980469 9.417969 35.585938 4.394531 34.75 C 2.300781 39.351562 1.675781 40.191406 1.675781 40.191406 L 0 39.769531 "/>
</g>
<path style=" stroke:none;fill-rule:nonzero;fill:rgb(14.38446%,27.66571%,54.8172%);fill-opacity:1;" d="M 41.277344 33.492188 L 41.277344 17.863281 L 42.984375 17.863281 L 42.984375 20.234375 C 43.421875 19.125 43.824219 18.394531 44.195312 18.039062 C 44.5625 17.6875 44.96875 17.511719 45.414062 17.511719 C 46.054688 17.511719 46.703125 17.792969 47.367188 18.363281 L 46.710938 20.820312 C 46.246094 20.4375 45.78125 20.246094 45.320312 20.246094 C 44.902344 20.246094 44.53125 20.421875 44.199219 20.769531 C 43.867188 21.117188 43.632812 21.601562 43.492188 22.21875 C 43.28125 23.160156 43.175781 24.191406 43.175781 25.308594 L 43.175781 33.492188 L 41.277344 33.492188 "/>
<path style=" stroke:none;fill-rule:nonzero;fill:rgb(14.38446%,27.66571%,54.8172%);fill-opacity:1;" d="M 48.507812 33.492188 L 48.507812 17.863281 L 50.40625 17.863281 L 50.40625 33.492188 Z M 48.507812 14.964844 L 48.507812 11.917969 L 50.40625 11.917969 L 50.40625 14.964844 L 48.507812 14.964844 "/>
<path style=" stroke:none;fill-rule:nonzero;fill:rgb(14.38446%,27.66571%,54.8172%);fill-opacity:1;" d="M 57.445312 31.121094 L 57.71875 33.464844 C 57.1875 33.621094 56.707031 33.699219 56.285156 33.699219 C 55.59375 33.699219 55.058594 33.546875 54.679688 33.242188 C 54.300781 32.9375 54.035156 32.539062 53.878906 32.042969 C 53.722656 31.546875 53.648438 30.503906 53.648438 28.914062 L 53.648438 19.921875 L 52.253906 19.921875 L 52.253906 17.863281 L 53.648438 17.863281 L 53.648438 13.992188 L 55.535156 12.402344 L 55.535156 17.863281 L 57.445312 17.863281 L 57.445312 19.921875 L 55.535156 19.921875 L 55.535156 29.0625 C 55.535156 29.816406 55.570312 30.304688 55.636719 30.519531 C 55.703125 30.734375 55.8125 30.90625 55.964844 31.035156 C 56.113281 31.164062 56.332031 31.226562 56.613281 31.226562 C 56.824219 31.226562 57.101562 31.191406 57.445312 31.121094 "/>
<path style=" stroke:none;fill-rule:nonzero;fill:rgb(14.38446%,27.66571%,54.8172%);fill-opacity:1;" d="M 59.28125 33.492188 L 59.28125 17.863281 L 60.992188 17.863281 L 60.992188 20.234375 C 61.429688 19.125 61.832031 18.394531 62.203125 18.039062 C 62.570312 17.6875 62.976562 17.511719 63.421875 17.511719 C 64.058594 17.511719 64.710938 17.792969 65.371094 18.363281 L 64.71875 20.820312 C 64.253906 20.4375 63.789062 20.246094 63.324219 20.246094 C 62.910156 20.246094 62.535156 20.421875 62.207031 20.769531 C 61.875 21.117188 61.640625 21.601562 61.5 22.21875 C 61.289062 23.160156 61.183594 24.191406 61.183594 25.308594 L 61.183594 33.492188 L 59.28125 33.492188 "/>
<path style=" stroke:none;fill-rule:nonzero;fill:rgb(14.38446%,27.66571%,54.8172%);fill-opacity:1;" d="M 67.9375 24.175781 L 74.195312 24.175781 C 74.113281 22.863281 73.871094 21.875 73.480469 21.21875 C 72.875 20.199219 72.089844 19.6875 71.125 19.6875 C 70.253906 19.6875 69.519531 20.09375 68.925781 20.910156 C 68.328125 21.722656 68 22.8125 67.9375 24.175781 Z M 74.175781 28.460938 L 76.140625 28.796875 C 75.828125 30.398438 75.253906 31.636719 74.417969 32.519531 C 73.582031 33.402344 72.511719 33.84375 71.210938 33.84375 C 69.570312 33.84375 68.269531 33.140625 67.308594 31.734375 C 66.347656 30.324219 65.867188 28.351562 65.867188 25.808594 C 65.867188 23.179688 66.355469 21.140625 67.324219 19.6875 C 68.296875 18.234375 69.554688 17.511719 71.105469 17.511719 C 72.601562 17.511719 73.828125 18.222656 74.777344 19.644531 C 75.726562 21.066406 76.203125 23.066406 76.203125 25.648438 C 76.203125 25.804688 76.199219 26.039062 76.191406 26.355469 L 67.832031 26.355469 C 67.902344 28.070312 68.25 29.386719 68.878906 30.300781 C 69.503906 31.210938 70.285156 31.667969 71.21875 31.667969 C 71.917969 31.667969 72.511719 31.414062 73.003906 30.902344 C 73.496094 30.390625 73.886719 29.578125 74.175781 28.460938 "/>
<path style=" stroke:none;fill-rule:nonzero;fill:rgb(14.38446%,27.66571%,54.8172%);fill-opacity:1;" d="M 85.679688 25.648438 C 84.992188 26.039062 83.957031 26.375 82.578125 26.648438 C 81.796875 26.804688 81.242188 26.984375 80.917969 27.179688 C 80.597656 27.375 80.347656 27.664062 80.171875 28.039062 C 79.996094 28.417969 79.90625 28.835938 79.90625 29.296875 C 79.90625 30.003906 80.097656 30.59375 80.480469 31.0625 C 80.867188 31.535156 81.425781 31.769531 82.164062 31.769531 C 82.898438 31.769531 83.546875 31.546875 84.117188 31.101562 C 84.6875 30.65625 85.105469 30.042969 85.375 29.269531 C 85.578125 28.671875 85.679688 27.789062 85.679688 26.621094 Z M 85.839844 31.5625 C 85.136719 32.398438 84.457031 32.988281 83.808594 33.332031 C 83.15625 33.675781 82.457031 33.84375 81.710938 33.84375 C 80.480469 33.84375 79.535156 33.425781 78.871094 32.585938 C 78.210938 31.75 77.878906 30.675781 77.878906 29.371094 C 77.878906 28.605469 78.003906 27.90625 78.253906 27.273438 C 78.503906 26.640625 78.832031 26.132812 79.238281 25.75 C 79.640625 25.367188 80.097656 25.078125 80.601562 24.882812 C 80.976562 24.746094 81.539062 24.613281 82.292969 24.484375 C 83.828125 24.230469 84.957031 23.925781 85.679688 23.574219 C 85.6875 23.210938 85.691406 22.980469 85.691406 22.882812 C 85.691406 21.800781 85.511719 21.042969 85.152344 20.601562 C 84.667969 20.003906 83.945312 19.703125 82.988281 19.703125 C 82.09375 19.703125 81.4375 19.921875 81.011719 20.359375 C 80.585938 20.792969 80.269531 21.566406 80.066406 22.675781 L 78.207031 22.324219 C 78.375 21.214844 78.65625 20.320312 79.042969 19.636719 C 79.429688 18.953125 79.988281 18.429688 80.71875 18.0625 C 81.453125 17.695312 82.300781 17.511719 83.265625 17.511719 C 84.21875 17.511719 84.996094 17.667969 85.597656 17.980469 C 86.195312 18.296875 86.632812 18.691406 86.914062 19.164062 C 87.195312 19.640625 87.394531 20.242188 87.507812 20.96875 C 87.570312 21.417969 87.601562 22.234375 87.601562 23.410156 L 87.601562 26.945312 C 87.601562 29.40625 87.640625 30.964844 87.722656 31.617188 C 87.804688 32.269531 87.964844 32.894531 88.203125 33.492188 L 86.21875 33.492188 C 86.023438 32.941406 85.894531 32.300781 85.839844 31.5625 "/>
<path style=" stroke:none;fill-rule:nonzero;fill:rgb(14.38446%,27.66571%,54.8172%);fill-opacity:1;" d="M 90.546875 33.492188 L 90.546875 17.863281 L 92.257812 17.863281 L 92.257812 20.085938 C 93.078125 18.367188 94.269531 17.511719 95.824219 17.511719 C 96.5 17.511719 97.121094 17.679688 97.6875 18.019531 C 98.253906 18.355469 98.675781 18.800781 98.960938 19.351562 C 99.238281 19.898438 99.4375 20.550781 99.550781 21.308594 C 99.621094 21.796875 99.65625 22.65625 99.65625 23.882812 L 99.65625 33.492188 L 97.753906 33.492188 L 97.753906 23.984375 C 97.753906 22.90625 97.679688 22.097656 97.535156 21.566406 C 97.386719 21.03125 97.125 20.601562 96.746094 20.285156 C 96.371094 19.964844 95.929688 19.804688 95.421875 19.804688 C 94.613281 19.804688 93.914062 20.164062 93.328125 20.878906 C 92.738281 21.597656 92.445312 22.957031 92.445312 24.957031 L 92.445312 33.492188 L 90.546875 33.492188 "/>
<path style=" stroke:none;fill-rule:nonzero;fill:rgb(14.38446%,27.66571%,54.8172%);fill-opacity:1;" d="M 110.390625 24.632812 L 115.636719 24.632812 L 114.019531 18.65625 C 113.527344 16.84375 113.164062 15.351562 112.925781 14.183594 C 112.726562 15.566406 112.449219 16.941406 112.089844 18.304688 Z M 105.925781 33.492188 L 111.867188 11.917969 L 114.074219 11.917969 L 120.40625 33.492188 L 118.074219 33.492188 L 116.269531 26.957031 L 109.800781 26.957031 L 108.101562 33.492188 L 105.925781 33.492188 "/>
<path style=" stroke:none;fill-rule:nonzero;fill:rgb(14.38446%,27.66571%,54.8172%);fill-opacity:1;" d="M 121.8125 33.492188 L 121.8125 17.863281 L 123.710938 17.863281 L 123.710938 33.492188 Z M 121.8125 14.964844 L 121.8125 11.917969 L 123.710938 11.917969 L 123.710938 14.964844 L 121.8125 14.964844 "/>
<path style=" stroke:none;fill-rule:nonzero;fill:rgb(14.38446%,27.66571%,54.8172%);fill-opacity:1;" d="M 126.582031 33.492188 L 126.582031 17.863281 L 128.289062 17.863281 L 128.289062 20.234375 C 128.726562 19.125 129.128906 18.394531 129.5 18.039062 C 129.867188 17.6875 130.277344 17.511719 130.71875 17.511719 C 131.359375 17.511719 132.011719 17.792969 132.671875 18.363281 L 132.015625 20.820312 C 131.554688 20.4375 131.089844 20.246094 130.625 20.246094 C 130.210938 20.246094 129.835938 20.421875 129.503906 20.769531 C 129.175781 21.117188 128.9375 21.601562 128.796875 22.21875 C 128.585938 23.160156 128.480469 24.191406 128.480469 25.308594 L 128.480469 33.492188 L 126.582031 33.492188 "/>
<path style=" stroke:none;fill-rule:nonzero;fill:rgb(14.38446%,27.66571%,54.8172%);fill-opacity:1;" d="M 133.757812 33.492188 L 133.757812 11.917969 L 135.65625 11.917969 L 135.65625 33.492188 L 133.757812 33.492188 "/>
<path style=" stroke:none;fill-rule:nonzero;fill:rgb(14.38446%,27.66571%,54.8172%);fill-opacity:1;" d="M 138.613281 33.492188 L 138.613281 17.863281 L 140.515625 17.863281 L 140.515625 33.492188 Z M 138.613281 14.964844 L 138.613281 11.917969 L 140.515625 11.917969 L 140.515625 14.964844 L 138.613281 14.964844 "/>
<path style=" stroke:none;fill-rule:nonzero;fill:rgb(14.38446%,27.66571%,54.8172%);fill-opacity:1;" d="M 143.40625 33.492188 L 143.40625 17.863281 L 145.117188 17.863281 L 145.117188 20.085938 C 145.941406 18.367188 147.128906 17.511719 148.683594 17.511719 C 149.359375 17.511719 149.980469 17.679688 150.546875 18.019531 C 151.113281 18.355469 151.535156 18.800781 151.820312 19.351562 C 152.101562 19.898438 152.296875 20.550781 152.410156 21.308594 C 152.480469 21.796875 152.515625 22.65625 152.515625 23.882812 L 152.515625 33.492188 L 150.613281 33.492188 L 150.613281 23.984375 C 150.613281 22.90625 150.542969 22.097656 150.394531 21.566406 C 150.246094 21.03125 149.984375 20.601562 149.609375 20.285156 C 149.230469 19.964844 148.789062 19.804688 148.28125 19.804688 C 147.472656 19.804688 146.773438 20.164062 146.1875 20.878906 C 145.601562 21.597656 145.304688 22.957031 145.304688 24.957031 L 145.304688 33.492188 L 143.40625 33.492188 "/>
<path style=" stroke:none;fill-rule:nonzero;fill:rgb(14.38446%,27.66571%,54.8172%);fill-opacity:1;" d="M 156.863281 24.175781 L 163.121094 24.175781 C 163.039062 22.863281 162.800781 21.875 162.40625 21.21875 C 161.800781 20.199219 161.015625 19.6875 160.050781 19.6875 C 159.179688 19.6875 158.445312 20.09375 157.851562 20.910156 C 157.257812 21.722656 156.925781 22.8125 156.863281 24.175781 Z M 163.101562 28.460938 L 165.066406 28.796875 C 164.753906 30.398438 164.183594 31.636719 163.34375 32.519531 C 162.507812 33.402344 161.4375 33.84375 160.136719 33.84375 C 158.496094 33.84375 157.195312 33.140625 156.234375 31.734375 C 155.273438 30.324219 154.796875 28.351562 154.796875 25.808594 C 154.796875 23.179688 155.28125 21.140625 156.253906 19.6875 C 157.222656 18.234375 158.480469 17.511719 160.03125 17.511719 C 161.527344 17.511719 162.753906 18.222656 163.703125 19.644531 C 164.652344 21.066406 165.128906 23.066406 165.128906 25.648438 C 165.128906 25.804688 165.125 26.039062 165.117188 26.355469 L 156.757812 26.355469 C 156.828125 28.070312 157.175781 29.386719 157.804688 30.300781 C 158.429688 31.210938 159.210938 31.667969 160.148438 31.667969 C 160.84375 31.667969 161.4375 31.414062 161.929688 30.902344 C 162.421875 30.390625 162.8125 29.578125 163.101562 28.460938 "/>
<path style=" stroke:none;fill-rule:nonzero;fill:rgb(14.38446%,27.66571%,54.8172%);fill-opacity:1;" d="M 166.691406 28.828125 L 168.570312 28.414062 C 168.675781 29.464844 168.96875 30.269531 169.449219 30.828125 C 169.933594 31.386719 170.605469 31.667969 171.472656 31.667969 C 172.34375 31.667969 172.992188 31.417969 173.414062 30.925781 C 173.835938 30.429688 174.046875 29.847656 174.046875 29.179688 C 174.046875 28.582031 173.859375 28.109375 173.488281 27.769531 C 173.226562 27.53125 172.578125 27.234375 171.546875 26.871094 C 170.152344 26.378906 169.1875 25.953125 168.648438 25.597656 C 168.109375 25.238281 167.703125 24.742188 167.425781 24.109375 C 167.144531 23.476562 167.007812 22.777344 167.007812 22.011719 C 167.007812 21.316406 167.121094 20.671875 167.351562 20.078125 C 167.578125 19.484375 167.890625 18.992188 168.285156 18.597656 C 168.578125 18.296875 168.980469 18.039062 169.492188 17.828125 C 170.003906 17.617188 170.550781 17.511719 171.132812 17.511719 C 172.015625 17.511719 172.785156 17.6875 173.449219 18.039062 C 174.117188 18.394531 174.605469 18.871094 174.921875 19.476562 C 175.238281 20.078125 175.457031 20.886719 175.578125 21.894531 L 173.71875 22.25 C 173.636719 21.445312 173.390625 20.816406 172.984375 20.367188 C 172.582031 19.914062 172.011719 19.6875 171.269531 19.6875 C 170.398438 19.6875 169.777344 19.890625 169.402344 20.292969 C 169.03125 20.695312 168.84375 21.164062 168.84375 21.703125 C 168.84375 22.046875 168.921875 22.355469 169.074219 22.632812 C 169.230469 22.917969 169.472656 23.152344 169.804688 23.339844 C 169.992188 23.4375 170.554688 23.660156 171.480469 24.015625 C 172.824219 24.515625 173.765625 24.925781 174.296875 25.242188 C 174.824219 25.5625 175.242188 26.027344 175.546875 26.632812 C 175.847656 27.242188 176 28 176 28.902344 C 176 29.785156 175.816406 30.617188 175.445312 31.394531 C 175.074219 32.175781 174.542969 32.777344 173.847656 33.207031 C 173.148438 33.632812 172.363281 33.84375 171.480469 33.84375 C 170.027344 33.84375 168.914062 33.421875 168.152344 32.578125 C 167.386719 31.734375 166.902344 30.484375 166.691406 28.828125 "/>
</g>
</svg>

<svg xmlns="http://www.w3.org/2000/svg" width="176pt" height="53.587" viewBox="0 0 176 40.19"><defs><clipPath id="a"><path d="M0 0h33v40.191H0Zm0 0"/></clipPath></defs><path d="M39.234 14.637H26.887l2.527-5.614h12.352z" style="stroke:none;fill-rule:nonzero;fill:#25803a;fill-opacity:1"/><path d="M34.84 24.055H22.492l2.528-5.614h12.347z" style="stroke:none;fill-rule:nonzero;fill:#e21d25;fill-opacity:1"/><path d="M30.445 33.473H8.887l2.527-5.614h21.559z" style="stroke:none;fill-rule:nonzero;fill:#407dc8;fill-opacity:1"/><g clip-path="url(#a)"><path d="M0 39.77S6.906 24.28 12.14 19.05c5.231-5.234 14.442-10.152 17.79-15.8C31.742.188 32.23.004 32.23.004s1.676 12.559-5.859 21.766C18.836 30.98 9.418 35.586 4.395 34.75c-2.094 4.602-2.72 5.441-2.72 5.441z" style="stroke:none;fill-rule:nonzero;fill:#f9d10a;fill-opacity:1"/></g><path d="M41.277 33.492V17.863h1.707v2.371q.656-1.663 1.211-2.195.55-.527 1.22-.527c.64 0 1.288.281 1.952.851l-.656 2.457q-.699-.574-1.39-.574c-.419 0-.79.176-1.122.524q-.497.522-.707 1.449-.316 1.412-.316 3.09v8.183zM48.508 33.492V17.863h1.898v15.63Zm0-18.527v-3.047h1.898v3.047zM57.445 31.121l.274 2.344q-.8.234-1.434.234-1.037 0-1.605-.457a2.43 2.43 0 0 1-.801-1.199q-.232-.745-.23-3.129v-8.992h-1.395v-2.059h1.394v-3.87l1.887-1.59v5.46h1.91v2.059h-1.91v9.14c0 .754.035 1.243.102 1.458q.099.321.328.515c.148.13.367.192.648.192q.317 0 .832-.106M59.281 33.492V17.863h1.711v2.371q.656-1.663 1.211-2.195.551-.527 1.219-.527c.637 0 1.289.281 1.95.851l-.653 2.457q-.697-.574-1.395-.574c-.414 0-.789.176-1.117.524q-.497.522-.707 1.449-.316 1.412-.316 3.09v8.183zM67.938 24.176h6.257c-.082-1.313-.324-2.301-.715-2.957q-.907-1.531-2.355-1.532-1.307 0-2.2 1.223-.895 1.22-.987 3.266m6.238 4.285 1.965.336q-.47 2.4-1.723 3.723-1.255 1.323-3.207 1.324-2.46 0-3.902-2.11c-.961-1.41-1.442-3.382-1.442-5.925 0-2.63.488-4.668 1.457-6.122.973-1.453 2.23-2.175 3.781-2.175q2.247 0 3.672 2.133 1.425 2.13 1.426 6.003 0 .234-.012.707h-8.359q.104 2.574 1.047 3.946.938 1.366 2.34 1.367 1.048.001 1.785-.766.738-.766 1.172-2.441M85.68 25.648q-1.033.588-3.102 1-1.173.237-1.66.532-.481.294-.746.86a2.95 2.95 0 0 0-.266 1.257q0 1.062.574 1.765.579.709 1.684.708 1.1 0 1.953-.668.854-.67 1.258-1.832.305-.896.305-2.649Zm.16 5.915c-.703.835-1.383 1.425-2.031 1.769a4.4 4.4 0 0 1-2.098.512q-1.845.001-2.84-1.258-.991-1.256-.992-3.215 0-1.149.375-2.098t.984-1.523a4.1 4.1 0 0 1 1.364-.867q.561-.206 1.691-.399 2.302-.382 3.387-.91.01-.545.011-.691 0-1.621-.539-2.281-.727-.898-2.164-.899c-.894 0-1.55.219-1.976.656q-.64.652-.946 2.317l-1.859-.352c.168-1.11.45-2.004.836-2.687a3.87 3.87 0 0 1 1.676-1.575q1.1-.55 2.547-.55 1.43 0 2.332.468.895.475 1.316 1.184.422.715.594 1.805.093.675.094 2.441v3.535q0 3.693.12 4.672.124.98.481 1.875H86.22q-.295-.823-.38-1.93M90.547 33.492V17.863h1.71v2.223c.821-1.719 2.013-2.574 3.567-2.574q1.014-.001 1.864.508.847.503 1.273 1.332c.277.546.477 1.199.59 1.957q.105.733.105 2.574v9.61h-1.902v-9.509q0-1.618-.219-2.418-.221-.804-.789-1.28a1.97 1.97 0 0 0-1.324-.481q-1.214.002-2.094 1.074-.884 1.078-.883 4.078v8.535zM110.39 24.633h5.247l-1.617-5.977q-.738-2.719-1.094-4.472a37 37 0 0 1-.836 4.12Zm-4.464 8.86 5.941-21.575h2.207l6.332 21.574h-2.332l-1.804-6.535h-6.47l-1.698 6.535zM121.813 33.492V17.863h1.898v15.63Zm0-18.527v-3.047h1.898v3.047zM126.582 33.492V17.863h1.707v2.371q.656-1.663 1.211-2.195c.367-.352.777-.527 1.219-.527.64 0 1.293.281 1.953.851l-.656 2.457q-.692-.574-1.391-.574-.623.001-1.121.524-.494.522-.707 1.449-.317 1.412-.317 3.09v8.183zM133.758 33.492V11.918h1.898v21.574zM138.613 33.492V17.863h1.903v15.63Zm0-18.527v-3.047h1.903v3.047zM143.406 33.492V17.863h1.711v2.223c.824-1.719 2.012-2.574 3.567-2.574q1.012-.001 1.863.508.847.503 1.273 1.332.422.82.59 1.957.105.733.106 2.574v9.61h-1.903v-9.509c0-1.078-.07-1.886-.218-2.418q-.223-.804-.786-1.28-.567-.481-1.328-.481-1.214.002-2.094 1.074c-.585.719-.882 2.078-.882 4.078v8.535zM156.863 24.176h6.258q-.123-1.971-.715-2.957-.907-1.531-2.355-1.532-1.308 0-2.2 1.223c-.593.813-.925 1.902-.988 3.266m6.239 4.285 1.964.336c-.312 1.601-.882 2.84-1.722 3.723q-1.255 1.323-3.207 1.324-2.46 0-3.903-2.11c-.96-1.41-1.437-3.382-1.437-5.925 0-2.63.484-4.668 1.457-6.122.969-1.453 2.226-2.175 3.777-2.175 1.496 0 2.723.71 3.672 2.133q1.425 2.13 1.426 6.003 0 .234-.012.707h-8.36q.106 2.574 1.048 3.946.938 1.366 2.343 1.367a2.38 2.38 0 0 0 1.782-.766q.738-.766 1.172-2.441M166.691 28.828l1.88-.414q.158 1.576.878 2.414c.485.559 1.156.84 2.024.84.87 0 1.52-.25 1.941-.742a2.6 2.6 0 0 0 .633-1.746q-.001-.899-.559-1.41-.393-.357-1.941-.899-2.092-.74-2.899-1.273-.807-.54-1.222-1.489-.42-.949-.418-2.097-.001-1.044.344-1.934.34-.89.933-1.48.44-.453 1.207-.77a4.3 4.3 0 0 1 1.64-.316c.884 0 1.653.175 2.317.527.668.356 1.156.832 1.473 1.438.316.601.535 1.41.656 2.418l-1.86.355q-.122-1.209-.734-1.883-.602-.68-1.714-.68-1.307.002-1.868.606a2.01 2.01 0 0 0-.558 1.41q.001.515.23.93.234.427.73.707c.188.098.75.32 1.676.676 1.344.5 2.286.91 2.817 1.226q.791.481 1.25 1.39.452.916.453 2.27 0 1.325-.555 2.493t-1.597 1.812c-.7.426-1.485.637-2.368.637-1.453 0-2.566-.422-3.328-1.266q-1.146-1.266-1.46-3.75" style="stroke:none;fill-rule:nonzero;fill:#25478c;fill-opacity:1"/></svg>
